X: 1
T: Sandy Boys Reel
M: C
S: Paul Stamler <pstamler@pobox.com> 2009-11-11 (email)
N: Version from eastern Missouri, western Illinois
L: 1/8
K: Amix
   aa \
| "A"a2g2 e2g2 | edc2 A2aa | a2g2    e2g2 |    a3a  a2aa \
|    a2g2 e2g2 | edc2 A3A  | c2e2 "D"dedc | "A"A3A  A2  :|
|: c2 \
| "A"e4   e3e  | d2c2 A3A  | c2e2 "D"d4   | "A"c2e2 "D"d4 \
| "A"e4   e3e  | d2c2 A3A  | c2e2 "D"dedc | "A"A3A     A2 :|
